static/logos/wistia-wordmark-color.svg

<svg width="100" height="17" viewBox="0 0 100 17" fill="none" xmlns="http://www.w3.org/2000/svg">
<g clip-path="url(#clip0_1_383)">
<path d="M12.3984 15.75C9.70312 16.4922 3.625 16.1328 2.64844 16.1328H0.390625L4.10938 11.9375C5.11719 10.8047 5.67187 10.5703 6.75781 10.5703C7.84375 10.5703 10.4844 10.6797 11.8984 10.5703C13.8796 10.4554 15.8146 9.92583 17.5781 9.01559C19.8828 7.5625 20.3438 6.67188 20.3438 6.67188C20.3438 6.67188 21.1641 13.3359 12.3984 15.75Z" fill="#3363E7"/>
<path d="M20.0703 3.97656C20.4922 1.40625 19.0391 0.703125 19.0391 0.703125C19.0391 0.703125 19.1406 2.79687 15.2344 3.24218C11.8203 3.63281 0.390625 3.33593 0.390625 3.33593L4.07031 7.55468C4.36388 7.98365 4.75981 8.33264 5.22227 8.56998C5.68471 8.8074 6.19907 8.92561 6.71875 8.91404C8.47664 8.98607 10.2372 8.95998 11.9922 8.83592C14.2283 8.71279 16.3888 7.98365 18.2422 6.72656C19.1649 6.06199 19.8147 5.08463 20.0703 3.97656Z" fill="#3363E7"/>
<path d="M44.5781 0.898353H46.9922L40.8203 16.2187H40.1797L35.3594 4.22648L30.4844 16.2187H29.8516V16.1406L23.7031 0.898353H26.1719L30.2188 11.0546L34.3047 0.898353H36.5L40.6016 11.0546L44.5781 0.898353ZM49.3125 16.1562H51.7109V0.898353H49.3125V16.1562ZM61.2031 7.85932L59.5625 6.89054C58.9827 6.56922 58.4558 6.16082 58 5.6796C57.7043 5.3541 57.5376 4.93182 57.5312 4.4921C57.5311 4.26475 57.5883 4.04104 57.6975 3.84167C57.8068 3.64229 57.9645 3.47369 58.1563 3.35148C58.6465 3.02824 59.2258 2.86702 59.8125 2.89054C60.4553 2.91298 61.0873 3.06262 61.672 3.33081C62.2567 3.59901 62.7824 3.98043 63.2187 4.45304L63.4297 4.65617V1.82023L63.375 1.78117C62.3353 1.07034 61.1032 0.694165 59.8437 0.703037C58.647 0.650998 57.4756 1.05914 56.5703 1.84367C56.1541 2.21545 55.8244 2.67392 55.6044 3.18682C55.3844 3.69972 55.2794 4.25459 55.2969 4.81242C55.2904 5.57881 55.5255 6.32777 55.9687 6.95304C56.5824 7.72781 57.3414 8.37534 58.2031 8.85932L59.8359 9.85151C61.1016 10.6328 61.75 11.4765 61.75 12.3437C61.7548 12.596 61.7009 12.8459 61.5924 13.0737C61.484 13.3015 61.3239 13.501 61.125 13.6562C60.6821 14.0101 60.1294 14.1981 59.5625 14.1874C58.7882 14.158 58.0316 13.9477 57.3533 13.5732C56.6749 13.1988 56.0937 12.6706 55.6562 12.0312L55.4297 11.7499V14.8749H55.4844C56.6404 15.7901 58.0648 16.3006 59.5391 16.3281C60.7252 16.3753 61.8829 15.9576 62.7656 15.164C63.1773 14.7781 63.5018 14.3088 63.7173 13.7874C63.933 13.2659 64.0346 12.7045 64.0156 12.1406C64.0156 10.414 63.0703 8.9687 61.2031 7.85932ZM65.7969 3.04679H70.3281V16.1562H72.7344V3.04679H77.3516V0.874915H65.7969V3.04679ZM79.9531 16.164H82.3516V0.898353H79.9531V16.164ZM99.7266 16.164H97.2656L95.2656 11.7187H89.0156L87.1094 16.1562H84.625L84.7031 15.9843L91.2109 0.812416H92.8828L99.7266 16.164ZM92.0313 4.5546L89.9688 9.54682H94.2578L92.0313 4.5546Z" fill="#3363E7"/>
</g>
<defs>
<clipPath id="clip0_1_383">
<rect width="100" height="16.4062" fill="white"/>
</clipPath>
</defs>
</svg>

<svg xmlns="http://www.w3.org/2000/svg" width="376.471" height="64" fill="none" viewBox="0 0 100 17"><g fill="#3363E7" clip-path="url(#a)"><path d="M12.398 15.75c-2.695.742-8.773.383-9.75.383H.391l3.718-4.195c1.008-1.133 1.563-1.368 2.649-1.368s3.726.11 5.14 0a14.172 14.172 0 0 0 5.68-1.554c2.305-1.454 2.766-2.344 2.766-2.344s.82 6.664-7.946 9.078Z"/><path d="M20.07 3.977c.422-2.57-1.03-3.274-1.03-3.274s.1 2.094-3.806 2.54c-3.414.39-14.843.093-14.843.093l3.68 4.219a3.125 3.125 0 0 0 2.648 1.359c1.758.072 3.518.046 5.273-.078a12.343 12.343 0 0 0 6.25-2.11 4.688 4.688 0 0 0 1.828-2.75ZM44.578.898h2.414l-6.172 15.32h-.64L35.36 4.227 30.483 16.22h-.632v-.078L23.703.898h2.469l4.047 10.157L34.305.898H36.5l4.102 10.157L44.578.898Zm4.734 15.258h2.399V.898h-2.398v15.258ZM61.203 7.86l-1.64-.968A6.475 6.475 0 0 1 58 5.68a1.805 1.805 0 0 1-.469-1.188 1.353 1.353 0 0 1 .625-1.14 2.805 2.805 0 0 1 1.657-.461 4.867 4.867 0 0 1 3.406 1.562l.21.203V1.82l-.054-.039A6.18 6.18 0 0 0 59.844.703a4.688 4.688 0 0 0-3.274 1.14 3.82 3.82 0 0 0-1.273 2.97 3.648 3.648 0 0 0 .672 2.14 7.596 7.596 0 0 0 2.234 1.906l1.633.993c1.266.78 1.914 1.624 1.914 2.492a1.626 1.626 0 0 1-.625 1.312 2.43 2.43 0 0 1-1.563.531 4.96 4.96 0 0 1-3.906-2.156l-.226-.281v3.125h.054a6.734 6.734 0 0 0 4.055 1.453 4.555 4.555 0 0 0 3.227-1.164 3.96 3.96 0 0 0 1.25-3.023c0-1.727-.946-3.172-2.813-4.282Zm4.594-4.812h4.531v13.11h2.406V3.046h4.618V.875H65.797v2.172Zm14.156 13.117h2.399V.898h-2.399v15.266Zm19.774 0h-2.461l-2-4.445h-6.25l-1.907 4.437h-2.484l.078-.172L91.211.812h1.672l6.844 15.352ZM92.03 4.554 89.97 9.548h4.289L92.03 4.555Z"/></g><defs><clipPath id="a"><path fill="#fff" d="M0 0h100v16.406H0z"/></clipPath></defs></svg>
